svgs/sharp-regular/school-circle-check.svg

<svg xmlns="http://www.w3.org/2000/svg" viewBox="0 0 640 512"><!--! Font Awesome Pro 6.6.0 by @fontawesome - https://fontawesome.com License - https://fontawesome.com/license (Commercial License) Copyright 2024 Fonticons, Inc. --><path d="M466.7 144l-11.4-6.8L320 56 184.7 137.2 173.3 144 160 144 48 144l0 320 208 0 0-80c0-35.3 28.7-64 64-64c2.2 0 4.4 .1 6.5 .3c-4.3 15.2-6.5 31.1-6.5 47.7c0 59.5 29.6 112.2 74.8 144L48 512 0 512l0-48L0 144 0 96l48 0 112 0L320 0 480 96l112 0 48 0 0 48 0 122.8c-12.9-18.3-29.2-34.1-48-46.3l0-76.5-112 0-13.3 0zm-74 81.5c-15 10.9-28.2 24.1-39.1 39.1C343.3 269.4 332 272 320 272c-44.2 0-80-35.8-80-80s35.8-80 80-80s80 35.8 80 80c0 12-2.6 23.3-7.3 33.5zM160 192l0 96-64 0 0-96 64 0zM96 320l64 0 0 96-64 0 0-96zM336 160l0-16-32 0 0 16 0 32 0 16 16 0 24 0 16 0 0-32-16 0-8 0 0-16zm16 208a144 144 0 1 1 288 0 144 144 0 1 1 -288 0zm222.6-32L552 313.4l-11.3 11.3L480 385.4l-28.7-28.7L440 345.4 417.4 368l11.3 11.3 40 40L480 430.6l11.3-11.3 72-72L574.6 336z"/></svg>

<svg xmlns="http://www.w3.org/2000/svg" viewBox="0 0 640 512"><!--! Font Awesome Pro 6.4.0 by @fontawesome - https://fontawesome.com License - https://fontawesome.com/license (Commercial License) Copyright 2023 Fonticons, Inc. --><path d="M466.7 144l-11.4-6.8L320 56 184.7 137.2 173.3 144H160 48V464H256V384c0-35.3 28.7-64 64-64c2.2 0 4.4 .1 6.5 .3c-4.3 15.2-6.5 31.1-6.5 47.7c0 59.5 29.6 112.2 74.8 144H48 0V464 144 96H48 160L320 0 480 96H592h48v48V266.8c-12.9-18.3-29.2-34.1-48-46.3V144H480 466.7zm-74 81.5c-15 10.9-28.2 24.1-39.1 39.1C343.3 269.4 332 272 320 272c-44.2 0-80-35.8-80-80s35.8-80 80-80s80 35.8 80 80c0 12-2.6 23.3-7.3 33.5zM160 192v96H96V192h64zM96 320h64v96H96V320zM336 160V144H304v16 32 16h16 24 16V176H344h-8V160zm16 208a144 144 0 1 1 288 0 144 144 0 1 1 -288 0zm222.6-32L552 313.4l-11.3 11.3L480 385.4l-28.7-28.7L440 345.4 417.4 368l11.3 11.3 40 40L480 430.6l11.3-11.3 72-72L574.6 336z"/></svg>
